_includes/icons/ios-left-arrow.svg

<svg fill="#666" height="50" viewBox="0 0 50 50" width="50" xmlns="http://www.w3.org/2000/svg"><path d="m34.960938 2.980469c-.519532.015625-1.011719.234375-1.375.605469l-20 20c-.78125.78125-.78125 2.046875 0 2.828125l20 20c.5.523437 1.246093.734375 1.949218.550781.699219-.183594 1.246094-.730469 1.429688-1.429688.183594-.703125-.027344-1.449218-.550781-1.949218l-18.585938-18.585938 18.585938-18.585937c.589843-.574219.769531-1.453125.449218-2.214844-.324218-.757813-1.078125-1.242188-1.902343-1.21875z"/></svg>

<svg xmlns="http://www.w3.org/2000/svg" viewBox="0 0 50 50" width="50" height="50" fill="#666"><path d="M 34.960938 2.980469 C 34.441406 2.996094 33.949219 3.214844 33.585938 3.585938 L 13.585938 23.585938 C 12.804688 24.367188 12.804688 25.632813 13.585938 26.414063 L 33.585938 46.414063 C 34.085938 46.9375 34.832031 47.148438 35.535156 46.964844 C 36.234375 46.78125 36.78125 46.234375 36.964844 45.535156 C 37.148438 44.832031 36.9375 44.085938 36.414063 43.585938 L 17.828125 25 L 36.414063 6.414063 C 37.003906 5.839844 37.183594 4.960938 36.863281 4.199219 C 36.539063 3.441406 35.785156 2.957031 34.960938 2.980469 Z"/></svg>
